src/lib/packages/icons/src/assets/filled/shopping-basket-times.svg

<svg width="24" height="24" viewBox="0 0 24 24" fill="none" xmlns="http://www.w3.org/2000/svg">
<path d="M19.078 12H4.92297C4.74497 12 4.60602 12.154 4.62402 12.331L5.23999 18.3C5.39999 19.83 5.98998 21 8.22998 21H15.79C17.99 21 18.63 19.83 18.77 18.3L19.376 12.33C19.394 12.154 19.256 12 19.078 12ZM14.03 16.47C14.323 16.763 14.323 17.238 14.03 17.531C13.884 17.677 13.692 17.751 13.5 17.751C13.308 17.751 13.116 17.678 12.97 17.531L12 16.561L11.03 17.531C10.884 17.677 10.692 17.751 10.5 17.751C10.308 17.751 10.116 17.678 9.96997 17.531C9.67697 17.238 9.67697 16.763 9.96997 16.47L10.9399 15.5L9.96997 14.53C9.67697 14.237 9.67697 13.762 9.96997 13.469C10.263 13.176 10.738 13.176 11.031 13.469L12.001 14.439L12.9709 13.469C13.2639 13.176 13.739 13.176 14.032 13.469C14.325 13.762 14.325 14.237 14.032 14.53L13.062 15.5L14.03 16.47ZM21 9.00001C21 10.104 20.104 11 19 11H5C3.896 11 3 10.104 3 9.00001C3 7.89601 3.896 7.00001 5 7.00001H6.72803L9.37695 2.61201C9.59095 2.25801 10.052 2.14301 10.406 2.35801C10.76 2.57301 10.875 3.03301 10.66 3.38801L8.479 7.00001H15.53L13.374 3.38401C13.162 3.02901 13.278 2.56801 13.635 2.35601C13.99 2.14501 14.451 2.26001 14.663 2.61701L17.277 7.00101H19C20.104 7.00001 21 7.89601 21 9.00001Z" fill="currentColor"/>
</svg>

<svg xmlns="http://www.w3.org/2000/svg" width="24" height="24" fill="none"><path fill="currentColor" d="M19.078 12H4.923a.3.3 0 0 0-.299.331L5.24 18.3c.16 1.53.75 2.7 2.99 2.7h7.56c2.2 0 2.84-1.17 2.98-2.7l.606-5.97a.3.3 0 0 0-.298-.33Zm-5.048 4.47a.75.75 0 0 1-1.06 1.061l-.97-.97-.97.97a.748.748 0 0 1-1.06 0 .75.75 0 0 1 0-1.061l.97-.97-.97-.97a.75.75 0 1 1 1.061-1.061l.97.97.97-.97a.75.75 0 0 1 1.061 1.061l-.97.97.968.97ZM21 9a2 2 0 0 1-2 2H5a2 2 0 0 1 0-4h1.728l2.649-4.388a.749.749 0 1 1 1.283.776L8.479 7h7.051l-2.156-3.616a.75.75 0 1 1 1.289-.767l2.614 4.384H19A2 2 0 0 1 21 9Z"/></svg>
